X:1
T:Sorrows, 11.11.76.11
T:Sorrows, 11.11.76.11
T:Joseph P. Powell, 1871
T:Public Domain Courtesy of the Cyber Hymnal™
C:Joseph P. Powell, 1871
Z:Public Domain
Z:Courtesy of the Cyber Hymnal™
%%score ( 1 2 ) ( 3 4 )
L:1/8
Q:1/4=110
M:6/8
K:Eb
V:1 treble 
V:2 treble 
V:3 bass 
V:4 bass 
V:1
 [EG]2 [EG] [EG]2 [EG] | [EB]3 [EG]3 | [Ac]2 [GB] E2 [EF] | [EG]6 | [EG]2 [EG] [EG]2 [EG] | %5
 [EB]3 [EG]3 | [Gc]2 [Ec] [Ec]2 [D=B] | [Ec]3- [Ec]2 [EB] | [Ge]2 [Ge] [EB]2 [EB] | %9
 [Ec]3 [EG]2 [EB] | [Ge]2 [Ge] [EB]2 [EB] | [Ec]3- [Ec]2 z | [EG]2 [EG] [EG]2 [EG] | [EB]3 [EG]3 | %14
 E2 E [DF]2 [DF] | [EG]6 |] %16
V:2
 x6 | x6 | x3 E2 x | x6 | x6 | x6 | x6 | x6 | x6 | x6 | x6 | x6 | x6 | x6 | E2 E x3 | x6 |] %16
V:3
 [E,B,]2 [E,B,] [E,B,]2 [E,B,] | [E,G,]3 [E,B,]3 | [E,E]2 [E,E] [E,G,]2 [E,A,] | [E,B,]6 | %4
 [E,B,]2 [E,B,] [E,B,]2 [E,B,] | [E,G,]3 [E,B,]3 | [C,E,]2 [E,G,] G,2 G, | %7
 [C,G,]3- [C,G,]2 [E,G,] | [E,B,]2 [E,B,] [E,G,]2 [E,G,] | [C,G,]3 [C,C]2 [E,G,] | %10
 [E,B,]2 [E,B,] [E,G,]2 [E,G,] | [C,G,]3- [C,G,]2 z | [E,B,]2 [E,B,] [E,B,]2 [E,B,] | [E,G,]3 E,3 | %14
 [C,G,]2 [C,G,] [B,,B,]2 [B,,B,] | [E,B,]6 |] %16
V:4
 x6 | x6 | x6 | x6 | x6 | x6 | x3 G,2 G, | x6 | x6 | x6 | x6 | x6 | x6 | x3 E,3 | x6 | x6 |] %16

